X:0120
T:The Dainty Besom Maker.
N:strathspey form of "The Old Lea Rig", later "The Rose Tree"
M:C
L:1/8
Q:1/4=120
I: :: ::
Z:Jack Campin * www.campin.me.uk * 2009
K:D
f/e/|d>BA>G     A2A>B|d2e2   f<ee>f|d>BA>F A2A>B|d>fe>g fdd:|
f   |g>fg>a {ga}b2ag |f>ef>a b<ee>f|d>BA>F A2A>B|d>fe>g fdd:|

